!!!COM: John Williams
!!!OTL: Anakin
!!!GAW: Star Wars: Episode I
!!!ODT: 1999
!!!OCL: Frank Lehman
!!!ENC: Claire Arthur
!!!ENC2: John McNamara
**kern	**harte	**harm	**altharm	**cadence
*clefG2	*	*	*	*
*k[f#c#g#]	*k[f#c#g#]	*k[f#c#g#]	*	*
*A:	*A:	*A:	*	*
*M4/4	*M4/4	*M4/4	*	*
*MM75	*MM75	*MM75	*	*
4B	.	.	.	.
=1	=1	=1	=1	=1
4e	A	I	.	.
4a	.	.	.	.
4b	B/m7	V/V	.	.
4ff#	.	.	.	.
=2	=2	=2	=2	=2
4ff#	G#:7/m2	VII7	.	.
8eeL	.	.	.	.
8dd#J	.	.	.	.
4dd#	A	I	.	.
4ee	.	.	.	.
=3	=3	=3	=3	=3
4ffn	F:7/7	Gn	.	.
8aL	.	.	.	.
8ccnJ	.	.	.	.
4d#	.	.	.	.
8g#L	.	.	.	.
8aJ	.	.	.	.
=4	=4	=4	=4	=4
4ddn	B-:7(A4)	-IIM7	Fr/I	.
8dnL	.	.	.	.
8aJ	.	.	.	.
2e	A:sus4	I	.	IAC
.	A	.	.	//
=5	=5	=5	=5	=5
4e	A	.	.	.
4a	.	.	.	.
4b	B/m7	V/V	.	.
4ff#	.	.	.	.
=6	=6	=6	=6	=6
4gg#	G#:7/m2	VII7	.	.
8ff#L	.	.	.	.
8dd#J	.	.	.	.
4dd#	A	I	.	.
4ee	.	.	.	.
=7	=7	=7	=7	=7
4aa	D:min/2	iv	.	.
8aL	D:min	.	.	.
8bJ	.	.	.	.
4b#	A/5	C64	.	.
8cc#L	.	.	.	.
8eJ	.	.	.	.
=8	=8	=8	=8	=8
4e	B:min7(D5)	iiom7	.	.
4d	.	.	.	.
2a	A:sus4	I	.	PC
.	A	.	.	]]
=	=	=	=	=
*-	*-	*-	*-	*-
